X: 1
T: Church Island
M: 4/4
L: 1/8
R: reel
K: Dmin
||DFAd B{cB}AGB | AFDF E{FE}CA,D | F{GF}EFG AGA{B}c | f{gf}edc d2 de | f{gf}edc dcAc | B{cB}AGB AFDF | ECA,D F{GF}EFG |AFEF D2 DC || DFAd B{cB}AGB | AFDF E{FE}CA,D | F{GF}EFG AGA{B}c | f{gf}edc d2 de | f{gf}edc dcAc | B{cB}AGB AFDF | ECA,D F{GF}EFG |AFEF D2 fg ||a/g/fda g/f/ecg | f{gf}efg a/g/fdA |DFAd fdf/g/a| g{gf}ece g/a/g e/f/g | a/g/fdA D/F/Ad/f/a | gecG EGcg | fdAF DFAf | edcA d2(efg)3|  afda gecg | fefg afdA | A,DFA dfaf |  gece g2 fg | afdA A,DFa | gecG  EGcg | fdAF A,DFf | edcA d2AF ||
